build/finance/GoldOutline.svg

<svg xmlns="http://www.w3.org/2000/svg" fill="none" viewBox="0 0 24 24" focusable="false"><path d="M0 0H24V24H0z"/><path fill="#74767B" fill-rule="evenodd" d="M5 6.40303L19 6.40303C19.9389 6.40303 20.7 7.16414 20.7 8.10303L20.7 15.8969C20.7 16.8358 19.9389 17.5969 19 17.5969L5 17.5969C4.06112 17.5969 3.3 16.8358 3.3 15.8969L3.3 8.10303C3.3 7.16414 4.06112 6.40303 5 6.40303ZM2 8.10303C2 6.44617 3.34315 5.10303 5 5.10303L19 5.10303C20.6569 5.10303 22 6.44617 22 8.10303L22 15.8969C22 17.5538 20.6569 18.8969 19 18.8969L5 18.8969C3.34315 18.8969 2 17.5538 2 15.8969L2 8.10303ZM9.09612 8.38693C8.99403 8.14683 8.75827 7.99104 8.49737 7.99127C8.23646 7.99151 8.00098 8.14772 7.89932 8.38801L5.05984 15.0996C4.91997 15.4302 5.07459 15.8116 5.4052 15.9514C5.73582 16.0913 6.11722 15.9367 6.2571 15.6061L6.93468 14.0045L10.072 14.0045L10.7535 15.6072C10.8939 15.9375 11.2756 16.0915 11.606 15.951C11.9364 15.8105 12.0903 15.4288 11.9498 15.0985L9.09612 8.38693ZM9.5193 12.7045L8.49944 10.306L7.48467 12.7045L9.5193 12.7045ZM14.0029 9.99691C14.3619 9.99691 14.6529 10.2879 14.6529 10.6469L14.6529 13.1894C14.6529 14.0285 15.3331 14.7087 16.1722 14.7087C17.0113 14.7087 17.6915 14.0285 17.6915 13.1894L17.6915 10.6469C17.6915 10.2879 17.9825 9.99691 18.3415 9.99691C18.7005 9.99691 18.9915 10.2879 18.9915 10.6469L18.9915 13.1894C18.9915 14.7465 17.7292 16.0087 16.1722 16.0087C14.6151 16.0087 13.3529 14.7465 13.3529 13.1894L13.3529 10.6469C13.3529 10.2879 13.6439 9.99691 14.0029 9.99691Z"/></svg>

<svg xmlns="http://www.w3.org/2000/svg" fill="none" viewBox="0 0 24 24" focusable="false"><path fill="#74767B" fill-rule="evenodd" d="M5 6.4h14c.93 0 1.7.76 1.7 1.7v7.79c0 .94-.77 1.7-1.7 1.7H5c-.94 0-1.7-.76-1.7-1.7V8.1c0-.94.76-1.7 1.7-1.7M2 8.1c0-1.66 1.34-3 3-3h14c1.65 0 3 1.34 3 3v7.79c0 1.66-1.35 3-3 3H5c-1.66 0-3-1.34-3-3zm7.09.28a.65.65 0 0 0-.6-.39c-.26 0-.49.15-.6.39l-2.84 6.71c-.14.34.02.72.35.86s.71-.02.85-.35l.68-1.6h3.14l.68 1.6c.14.33.52.49.85.35s.49-.53.34-.86zm.42 4.32-1.02-2.4-1.01 2.4zM14 9.99c.36 0 .65.29.65.65v2.54a1.52 1.52 0 1 0 3.04 0v-2.54c0-.36.29-.65.65-.65s.65.29.65.65v2.54c0 1.56-1.27 2.82-2.82 2.82-1.56 0-2.82-1.26-2.82-2.82v-2.54c0-.36.29-.65.65-.65"/></svg>
